X:1
T:BWV 1003M
T:J. S. Bach
%%score { ( 1 2 ) | ( 3 4 ) }
L:1/8
Q:1/4=60
M:4/4
K:C
V:1 treble nm="Harp"
V:2 treble 
V:3 treble 
V:4 treble 
V:1
"^Slow" e2 G,/4f/4e/4d/8c/8c/4B/4A/ A/^G/A- A/A/4B/4c/4d/4e/ | %1
 f/>e/d/c/4B/4 c/4B/4c/4B/4A/4^G/4A/ A/4G/4A/4G/4^F/E/ D/>=F/E/4D/4C/4D/8B,/8 | %2
 C/4A,/4C/4E/4A/4c/4e/4f/4 g/4f/4g/4f/4 g/4f/4e/4f/4 g/>f/ e/d/4c/4 d/4c/4d/4c/4_B/4A/4B/ | %3
 A>a g/4f/e/4d/e/4c/4 B/4>G/4A/4B/4c/4d/4e/8f/8g/8B/8 d/4c/4d/4c/4c/B/4c/4 | %4
 d>G (3F/E/D/(3A/G/F/ E/-E/8G/8A/8B/8 c/-c/8G/8A/8B/8 c/8d/8e/B/4c/4d/4e/4g/8^f/8 | %5
 ^f/a/ c'/d'/4b/4 c'/=f/4e/4f e z/ a/ B>c | %6
 c-c/4G/4A/4B/4 c/4d/4e/4f/4e/4d/4c/4B/8A/8 ^G/4E/4G/4B/4d/4A/4F/4A,/4 ^G,/>f/e/4d/4c/4d/8B/8 | %7
 cB/A/ ^f>f f3/2g/4a/4 g/f/g/e/ | %8
 e/_e/^c/B/ b3/4B/8=c/8d/4=e/4f/4d/4 _A/f/-f/4g/4f/4e/4 d/4^c/4d/b/d/ | %9
 ^c/>e/^f/4g/4a/4b/4 c'/4b/4c'/_e/c'/ b>a a/g/a/f/ | e z z2 e>^f _e>=e | %11
 e2- e/f/4e/4d/4c/4B/4c/8A/8 ^G-G/4A/4B/4A/4 G/4^F/4E/4D/4C/D/4B,/4 | %12
 A-A/4E/4^F/4_A/4 =A/4B/4c/4d/4e/4f/4g/4_b/8a/8 b/a/a/g/ g/f/g/e/ | %13
 f/a/4g/4a C/4_b/4a/4g/4f/4e/4d/4e/8^c/8 d/4A/4_B/4G/4E/4^C/4D/4_B,/4 A,/4D/4^F/4A/4=c/4_e/4d/4A/4 | %14
 _B/4^F/4G/4B/4d/4^f/4g/4_b/4 =f/f/4e/4_A/4d/4^c/4d/4 c/>d/e/4f/4g/4e/4 B3/4^C/8D/8E/4=F/4G/4E/4 | %15
 F/4^G/4A/4d/4f/4^g/4a/4_b/4 d^c/>d/ d3/4=c/8_B/8A/4=G/4F/4G/8A/8 D/4F/4A/4d/4f/4a/4=g/8e/8f/4 | %16
 f-f/8d/8e/8f/8g/8a/8b/8c'/8 d'/b/4g/4g/4f/4e/ e z A/4^G/4A/4c/4e/4c/4A/4F/4 | %17
 d/e/4f/4^G/e/ dc3/4B/8c/8 B-B/4^g/4a/4b/4 a/4g/4^f/4e/4d/4B/4_A/4E/4 | %18
 ^C/G/4A/4_B/A/ G/4^F/4G/e/G/ F/4>A/4=B/4c/4d/4e/4f/4g/4 f/4e/4f/4d/4^G/f/ | %19
 e>d d/c/d/B/ a3/2b/4c'/4 b/4^g/4a/4f/4e/4_e/4=e/4A/4 | %20
 A/8B/8c3/4 z B>A A,/A/4^G/4A/4c/4f/ G,/=G/4^F/4G/4B/4e/8_e/8=e/4 | %21
 F/4e/4a/4^g/4a/4c'/4b/4d'/4 g/4a/4e/4c/4A/4F/4A/4^c/4 d/4 z/4 d/4 z/4 d/4 z/4 d/4 z/4 e/4_e/4=e/4_e/4=e/4_e/4=e/4_e/4 | %22
 e8 | z8 |[M:2/4][Q:1/4=96]"^Andante" z e/_e/ =eE | Ac Bd | c z z2 | z e e_e | eB/A/ B^c | %29
 dA/^G/ AB | z a/^g/ aA | eg ^fa | ge/_e/ z g | ga/g/ ae | fd/^c/ z f | fg/f/ gd | %36
 e/f/e/d/ c/B/A/G/ | ^Fd/c/ dF | ^G/A/B/c/ dF | Ed/c/ d/f/e/d/ | %40
 c/d/c/d/ e/4d/4e/4d/4e/4d/4c/4d/4 | e z g2 | ^f2 =f2 | e2 a2 | ^g2 =g2 | ^f2 b2 | _b2 a2 | %47
 ^g=g/^f/ ga | b^f/e/ f^g | aa/^g/ ab | c'g/^f/ ga | bb/a/ bc' | d'a/^g/ ab | c' z z2 | %54
 Dc'/a/ g/^f/e/d/ | b z z2 | C_b/g/ f/e/d/c/ | aa/f/ e/d/^c/B/ | gg/e/ d/^c/B/A/ | %59
 f/g/f/e/ d/c/_B/A/ | f_b/f/ e/d/c/=B/ | ^ga/g/ aa | a z z ^g | g z f z | e z z e | ed/^c/ d_B | %66
 ^Gf ed | d/4c/4d/4c/4d/4c/4d/ c/4B/4c/4B/4c/4B/4A/ | A/e/c/A/ z/ A/ z/ A/ | E/A/F/A/ E/A/D/A/ | %70
 A/e/c/A/ z/ A/ z/ A/ | E/A/F/A/ E/A/D/A/ | E/A/^G/A/ B/A/G/A/ | D/A/^G/A/ B/A/G/A/ | %74
 E/e/c/A/ z/ A/ z/ A/ | _E/^f/c/A/ ^G/A/D/A/ | E/b/g/e/ z/ e/ z/ e/ | B/e/c/e/ B/e/A/e/ | %78
 e/b/g/e/ z/ e/ z/ e/ | B/e/c/e/ B/e/A/e/ | B/e/_e/=e/ ^f/e/_e/=e/ | A/e/_e/=e/ ^f/e/_e/=e/ | %82
 B/b/g/e/ z/ e/ z/ e/ | c/e/B/e/ A/a/c/a/ | Bb/a/ bB | eg ^fa | g z z g | ^f2 =f2 | %88
 ea/^g/ a/^f/=g/e/ | _e z z ^f | Be/_e/ =e/c/d/B/ | cB A z | A^f/e/ f^F | Bd ^ce | _e^f ba | %95
 a/4g/4a/4g/4a/4g/4a/ g/4^f/4g/4f/4g/4f/4e/ | e z e2 | _e2 d2 | ^c=c/B/ cd | eB/A/ B^c | d2 d2 | %101
 ^c2 =c2 | BB/A/ Bc | dA/G/ AB | z g/f/ gG | ce df | eg fa | gc/B/ c/d/e/f/ | a z fc | %109
 ad/e/ ^f/g/a/b/ | b z z2 | z c' c'b | c'c'/b/ c'/g/e/c/ | gb ac' | b z z b | c' z b z | _b z a z | %117
 B/c/d/e/ f/g/a/f/ | g/a/g/f/ e/d/c/e/ | A/B/c/d/ e/f/g/e/ | f/g/f/e/ d/c/B/d/ | %121
 G/A/B/c/ d/e/f/d/ | e z z e | ea/g/ f/e/d/f/ | B/d/c/B/ A/G/F/d/ | E/c/D/C/ G,/D/c/B/ | ce/d/ eE | %127
 A/B/c/A/ B/c/d/B/ | c/d/e/c/ d/e/f/d/ | ea/^g/ a/^f/=g/e/ | ^f z z2 | ^g z e/c/d/B/ | a z z2 | %133
 b z z2 | ^G/B/e/^g/ b/c'/d'/b/ | c'/a/f/e/ f/c/A/c/ | b/f/d/c/ d/B/^G/B/ | c/e/a/^g/ a/e/c/e/ | %138
 g/e/^c/B/ c/A/E/G/ | F/d/A/G/ A/F/D/F/ | B,/D/^G/^F/ G/B/d/c/ | d/f/b/a/ b/f/e/d/ | %142
 c/B/A/^G/ A/c/f/c/ | B/A/G/^F/ G/B/e/B/ | A/G/F/E/ F/A/d/A/ | ^G/A/B/c/ d/e/f/e/ | %146
 f/e/d/^c/ d/^g/a/b/ | c/B/A/c/ F/e/a/d/ | ^g z z =g | c2 ^c2 | d z z f | B2 d2- | dc/d/ cc' | %153
 f2{f} e2 | dc/B/ ca | ed/c/ dB | ce ac | Ba/g/ a_e | ec' ba | %159
 a/4g/4a/4g/4a/4g/4a/ g/4^f/4g/4f/4g/4f/4e/ | eb/a/ bB | eg ^fa | g z z2 | z e e_e | eB/c/ Bb | %165
 ec dB | ce/_e/ =eE | z a a^g | ac/B/ cc | cd/c/ dA | B z z _B | _Bc/B/ cG | Af/g/ fe | dg/a/ gf | %174
 e z g z | a z a z | z g/a/ gf | ea/_b/ ag | f z ^f z | g z ^g z | ab c' z | z c' ba | ^ga b z | %183
 z b ag | ^fg a z | z g/^f/ gB | ce df | e^f g z | a/4g/4a/4g/4a/4g/4a/ g/4^f/4g/4f/4g/4f/4g/ | %189
 gb/a/ bB | ^c/e/^f/g/ a/B/A/G/ | ^Fa/g/ a^c | _e/=e/_e/=e/ ^f/g/A/B/ | c/d/^F/G/ A/B/_E/=E/ | %194
 ^F/G/A/B/ ^c/_e/=e/^f/ | g/a/g/a/ bB | ec/B/ A/G/^F/E/ | _eB/c/ Bb | ec dB | c2 B2 | AB c2 | %201
 c^f/c/ B/A/G/^F/ | G/_E/=E/G/ c/E/D/B/ | A/E/C/E/ A/C/B,/G/ | F/C/A,/C/ F/A,/G,/E/ | %205
 _E/^F/A/c/ ^f/B/A/f/ | G/^F/G/B/ e/A/^G/d/ | c/B/c/e/ f/A/G/e/ | _e/=e/^f/g/ a/^F/E/c/ | %209
 _E/=E/^F/G/ A/B,/_E/F/ | G/c/B/_e/ =e/g/^f/_b/ | be g/^f/e/_e/ | eG/A/ Gg | g z ^c2 | d z z2 | %215
 f z B2 | c z z2 | B z z2 | C/D/C/A,/ E/F/E/C/ | A/B/A/E/ c/d/c/A/ | _Bg/f/ gG | %221
 A/c/_B/A/ B/d/c/B/ | c/_e/d/c/ d/f/=e/d/ | e z z e | f z z f | g z z g | ag _ba | gf/e/ f/a/g/f/ | %228
 e/g/f/e/ d/c/_B/A/ | _B/A/B/D/ F/B/d/f/ | _b/a/b/f/ d/_B/F/D/ | c/_B/c/E/ G/c/e/g/ | %232
 _b/a/b/g/ e/c/G/E/ | c/_B/c/F/ A/c/f/g/ | a/g/a/f/ c/A/F/A/ | c/_B/c/^F/ A/c/_e/^f/ | %236
 a/g/a/_e/ c/A/^F/A/ | _B/A/B/G/ B/d/^f/a/ | g/^f/g/d/ _B/G/_E/D/ | ^C/B,/C/E/ A/^c/e/f/ | %240
 g/f/g/e/ ^c/A/E/^C/ | D/^C/D/F/ A/d/f/=C/ | _B,/A,/B,/F/ _B/d/f/A,/ | G,/D/G/A/ _B/d/_e/f/ | %244
 ^ca/g/ aA | df eg | f z z f | e z _e z | _ed/^c/ dd' | g/f/e/g/ f/e/d/f/ | _e/d/^c/d/ _ba | %251
 _e/^c/d _ba | d^c g_B | Ag fe | Ad E^c | dF/E/ FG | AE/D/ E^F | G2 G2 | ^F2 =F2 | EE/D/ EF | %260
 GD/C/ DE | F2 F2 | E2 _E2 | D_B/c/ BA | Gc/d/ c_B | A2 A2 | _B2 =B2 | cc/d/ c_B | Ad/e/ dc | %269
 _BG/A/ =BF | c2 ^c2 | dA/_B/ Aa | d_B cA | _B/A/G/A/ Bg | cA _BG | Ac/_B/ c z | z f z _e | %277
 z d/c/ d z | z g z f | z e/f/ ga | _ba ag | gf fe | d/e/d/e/ fA, | %283
 A,/4^G,/4A,/4G,/4A,/4G,/4f/ e/d/c/B/ | c/A/F/e/ d/c/B/A/ | ^Gb/a/ bd | c/b/a/^g/ ac | Ba g_B | %288
 A/g/f/e/ fA | Gf eG | F/e/d/c/ dF | Ed cE | F_B/A/ Bd | df f_b | ^gf/e/ a z | a z z ^g | a z e z | %297
 a z g z | fe ed | d z z c | _B/c/d/e/ fA | _Af ed | d/4c/4d/4c/4d/4c/4d/ c/4B/4c/4B/4c/4B/4A/ | %303
 z4 | a z ^g z | aA/B/ Aa | ec dB | c z ^c z | af ge | %309
 f/4g/4a/4g/4f/4e/4d/4^c/4 d/4e/4f/4e/4d/4=c/4B/4A/4 | %310
 B/4c/4d/4c/4B/4A/4^G/4^F/4 _A/4=A/4B/4A/4G/4F/4E/4D/4 | z a a^g | a4 | z4 | %314
[M:3/4] E/ z/ z z E F/E/D/C/ | G/D/F- FA G/F/E/D/ | E/G/A/B/ c z ^F/A/B/c/ | %317
 B/A/G z e/d/ e/d/c/B/ | A2 z d/e/ d/c/B/A/ | B/d/e/f/ g z c/e/a/g/ | f z B/c/d/e/ f/a/g/f/ | %321
 e z z/ d/c/B/ A/G/^F/4G/4E/ | ^F/D/E/F/ G/4B/4A/4c/4B/4d/4c/4e/4 d2 | %323
 C/e/4d/4c/4d/4e/ B-B/4c/8B/8A/4B/4 cB/4A/4B/4A/4 | G2 z/ G/F/E/ D/A/G/F/ | E2 z E F/E/D/C/ | %326
 G/D/F- FA G/F/E/D/ | E/G/A/B/ c z ^F/A/B/c/ | B/A/G z e/d/ e/d/c/B/ | A2 z d/e/ d/c/B/A/ | %330
 B/d/e/f/ g z c/e/a/g/ | f z B/c/d/e/ f/a/g/f/ | e z z/ d/c/B/ A/G/^F/4G/4E/ | %333
 ^F/D/E/F/ G/4B/4A/4c/4B/4d/4c/4e/4 d2 | C/e/4d/4c/4d/4e/ B-B/4c/8B/8A/4B/4 cB/4A/4B/4A/4 | G6 | %336
 d2 z d e/d/c/B/ | e/B/d- df e/d/c/B/ | c/d/e- ee d/c/B/A/ | a/^f/^g z g/b/ b/g/g/e/ | %340
 a2- a/b/a/g/ ^f/e/_e/=e/ | a/b/c'- c'c'/b/ a/g/a/^f/ | g/e/_e/=e/ ba a/g/a/^f/ | %343
 ^fe z e/=f/ g/a/_b- | ba z g g/f/g/e/ | ef z d/e/ f/g/a | Bc z c e/d/e/c/ | %347
 B2 z/ B/c/B/ A/G/F/E/ | F/_e/d/c/ B/c/^g/=g/ f/c/4B/4c/^f/ | %349
 g/>a/g/4f/4e/8f/8g/4 c-c/4B/4A/4B/4 c/4B/4c/4B/4c/4B/4A/4B/4 | c2 z4 | B/c/d z d e/d/c/B/ | %352
 e/B/d- df e/d/c/B/ | c/d/e- ee d/c/B/A/ | a/^f/^g z g/b/ b/g/g/e/ | a2- a/b/a/g/ ^f/e/_e/=e/ | %356
 a/b/c'- c'c'/b/ a/g/a/^f/ | g/e/_e/=e/ ba a/g/a/^f/ | ^fe z e/=f/ g/a/_b- | ba z g g/f/g/e/ | %360
 ef z d/e/ f/g/a | Bc z c e/d/e/c/ | B2 z/ B/c/B/ A/G/F/E/ | F/_e/d/c/ B/c/^g/=g/ f/c/4B/4c/^f/ | %364
 g/>a/g/4f/4e/8f/8g/4 c-c/4B/4A/4B/4 c/4B/4c/4B/4c/4B/4A/4B/4 | c6 |[M:2/2] z8 | %367
[Q:1/4=132]"^Allegro" A/c/e/a/ e/d/c/B/ A/c/e/a/ e/d/c/B/ | %368
 A/c/4d/4e/E/ A/c/e/^G/ A/c/4d/4e/E/ A/c/e/G/ | %369
 A/B/4c/4d/c/4B/4 c/d/4e/4f/e/4d/4 e/a/f/d/ e/d/c/B/ | %370
 A/B/4c/4d/c/4B/4 c/d/4e/4f/e/4d/4 e/a/f/d/ e/d/c/B/ | A/c/e/a/ c'/e/c/A/ ^G/B/e/^g/ b/d/c/B/ | %372
 A/c/e/a/ c'/e/c/A/ ^G/B/e/^g/ b/d/c/B/ | A/c/e/g/ f/c/B/A/ G/B/d/f/ e/B/A/G/ | %374
 F/A/c/e/ d/c/B/A/ ^G/e/B/G/ E/F/D/E/ | ^C/A/e/G/ F/D/F/=C/ B,/G/d/F/ E/C/E/B,/ | %376
 A,/F/c/E/ D/B,/D/A,/ ^G,/E/B/D/ C/A,/D/B,/ | E/C/A,/C/ E/A/c/E/ _E/c/B/A/ ^f/A/G/^F/ | %378
 E/B,/G,/B,/ E/G/B/D/ ^C/B/A/G/ e/g/^f/e/ | _e/A/^F/A/ e/^f/a/c/ B/F/_E/F/ B/e/f/a/ | %380
 g/b/4a/4g/^f/ e/c'/A/B/4c/4 D/a/4g/4f/e/ d/b/G/A/4B/4 | %381
 C/g/4^f/4e/d/ c/a/4g/4f/e/ _e/f/4e/4B/A/ G/=e/^F/d/ | %382
 E/d/4B/4G/F/ E/c/D/B/ C/B/4G/4E/D/ C/A/B,/G/ | %383
 A,/B,/4C/4D/C/4B,/4 C/D/4E/4F/E/4D/4 E/^F/4G/4A/G/4F/4 G/A/4B/4c/B/4A/4 | %384
 ^f/c/_E/c/ B/A/G/^F/ G/A/B/c/ F>=E | E/^C/4D/4E/A/ ^F/_E/4=E/4F/B/ G/E/4F/4G/c/ A/F/4G/4A/d/ | %386
 B/G/B/_e/ =e/g/b/d/ c/A/c/e/ f/a/c'/e/ | B/_e/^f/b/ f/=e/_e/^c/ B/e/f/a/ f/=e/_e/c/ | %388
 B/_e/=e/g/ e/d/c/B/ A/B/c/^f/ c/B/A/G/ | ^F/G/A/c/ A/G/F/E/ _E/F/A/c/ B/A/G/F/ | %390
 G/B/4G/4E/B,/ ^F/A/e/_e/ =e4 | A/c/e/a/ e/d/c/B/ A/c/e/a/ e/d/c/B/ | %392
 A/c/4d/4e/E/ A/c/e/^G/ A/c/4d/4e/E/ A/c/e/G/ | %393
 A/B/4c/4d/c/4B/4 c/d/4e/4f/e/4d/4 e/a/f/d/ e/d/c/B/ | %394
 A/B/4c/4d/c/4B/4 c/d/4e/4f/e/4d/4 e/a/f/d/ e/d/c/B/ | A/c/e/a/ c'/e/c/A/ ^G/B/e/^g/ b/d/c/B/ | %396
 A/c/e/a/ c'/e/c/A/ ^G/B/e/^g/ b/d/c/B/ | A/c/e/g/ f/c/B/A/ G/B/d/f/ e/B/A/G/ | %398
 F/A/c/e/ d/c/B/A/ ^G/e/B/G/ E/F/D/E/ | ^C/A/e/G/ F/D/F/=C/ B,/G/d/F/ E/C/E/B,/ | %400
 A,/F/c/E/ D/B,/D/A,/ ^G,/E/B/D/ C/A,/D/B,/ | E/C/A,/C/ E/A/c/E/ _E/c/B/A/ ^f/A/G/^F/ | %402
 E/B,/G,/B,/ E/G/B/D/ ^C/B/A/G/ e/g/^f/e/ | _e/A/^F/A/ e/^f/a/c/ B/F/_E/F/ B/e/f/a/ | %404
 g/b/4a/4g/^f/ e/c'/A/B/4c/4 D/a/4g/4f/e/ d/b/G/A/4B/4 | %405
 C/g/4^f/4e/d/ c/a/4g/4f/e/ _e/f/4e/4B/A/ G/=e/^F/d/ | %406
 E/d/4B/4G/F/ E/c/D/B/ C/B/4G/4E/D/ C/A/B,/G/ | %407
 A,/B,/4C/4D/C/4B,/4 C/D/4E/4F/E/4D/4 E/^F/4G/4A/G/4F/4 G/A/4B/4c/B/4A/4 | %408
 ^f/c/_E/c/ B/A/G/^F/ G/A/B/c/ F>=E | E/^C/4D/4E/A/ ^F/_E/4=E/4F/B/ G/E/4F/4G/c/ A/F/4G/4A/d/ | %410
 B/G/B/_e/ =e/g/b/d/ c/A/c/e/ f/a/c'/e/ | B/_e/^f/b/ f/=e/_e/^c/ B/e/f/a/ f/=e/_e/c/ | %412
 B/_e/=e/g/ e/d/c/B/ A/B/c/^f/ c/B/A/G/ | ^F/G/A/c/ A/G/F/E/ _E/F/A/c/ B/A/G/F/ | %414
 G/B/4G/4E/B,/ ^F/A/e/_e/ =e4 | E/e/g/b/ g/e/_e/=e/ E/e/g/b/ g/e/_e/=e/ | %416
 E/G/4A/4B/B,/ E/G/B/_E/ =E/G/4A/4B/B,/ E/G/B/_E/ | %417
 E/^F/4G/4A/G/4F/4 G/A/4B/4c/B/4A/4 B/G/4A/4B/^c/4_e/4 =e/B/4A/4G/F/ | %418
 E/^F/4G/4A/G/4F/4 G/A/4B/4c/B/4A/4 B/G/4A/4B/^c/4 _e/4 =e/B/4A/4G/F/ | %419
 E/G/B/e/ g/b/g/e/ _e/^f/e/B/ ^F/A/G/F/ | E/G/B/e/ g/b/g/e/ _e/^f/e/B/ ^F/A/G/F/ | %421
 E/G/B/d/ c/G/^F/E/ D/F/A/c/ B/F/E/D/ | C/E/G/B/ A/G/^F/E/ _E/B/F/E/ B,/C/A,/B,/ | %423
 G,/E/4^F/4G/B/ e/^f/d/e/ c/e/4d/4c/B/ A/B/G/A/ | ^F/D/4E/4F/G/ d/e/c/d/ B/G/4A/4B/d/ g/a/^f/g/ | %425
 e/g/e/B/ c/E/G/c/ d/g/d/A/ B/D/G/B/ | c/g/c/A/ D/^f/4g/4a/c/ B/g/d/B/ G/A/F/G/ | %427
 E/c/g/_B/ A/F/A/E/ D/=B/f/A/ G/E/G/D/ | C/A/e/G/ F/D/F/C/ B,/G/d/F/ E/C/F/D/ | %429
 G/E/C/E/ G/E/A/F/ _B/G/E/G/ B/G/c/G/ | A/F/A/c/ f/d/a/c/ B/G/B/d/ g/e/b/d/ | %431
 c/A/c/e/ a/f/c'/e/ d/B/d/g/ b/g/d'/f/ | %432
 e/g/4f/4e/f/4g/4 a/B/4c/4d/e/4f/4 g/A/4B/4c/d/4e/4 f/G/4A/4B/c/4d/4 | %433
 e/C/4D/4E/F/4G/4 A/F/d/F/ G,/F/B/d/ c/B/A/G/ | %434
 F/E/4D/4E/c/ G,/D/c/B/ c/e/4c/4G/F/ E/G/4E/4C/_B,/ | %435
 A,/G/^c/G/ c/G/e/G/ F/d/4A/4F/E/ D/A/4F/4D/C/ | %436
 B,/A/_e/A/ e/A/^f/A/ ^G/=e/4B/4G/^F/ E/B/4G/4E/D/ | %437
 C/4e/4d/4c/4B/c/4d/4 c/B/4A/4^G/A/4B/4 ^C/4A/4=G/4F/4E/F/4G/4 F/E/4D/4C/D/4E/4 | %438
 D/f/4e/4d/c/ B/d/G/A/4B/4 C/e/4d/4c/B/ A/c/F/G/4A/4 | %439
 B,/d/4c/4B/A/ ^G/d/b/d/ c/A/4B/4c/f/ B/=G/4A/4B/e/ | %440
 A/F/4G/4A/^c/ d/B/4=c/4d/f/ ^g/e/4^f/4g/b/ d'/b/4g/4e/g/4b/4 | %441
 c'/e'/4c'/4a/g/ f/d'/e/c'/ d/c'/4a/4f/e/ d/b/c/a/ | %442
 B/f/4d/4B/A/ ^G/d/^F/d/ E/G/B/d/ f/e/4d/4c/B/ | c/^G/A/_E/ =E/c/B/A/4G/4 A/F/4G/4A/F/ E/D/C/B,/ | %444
 C/4E/4^F/4^G/4A/E/ D/C/B,/A,/ B,/4C/4D/4E/4=F/E/ D/B/f/A/ | %445
 ^G/4A/4B/4c/4d/c/ B/^g/4a/4b/d/ c/4e/4^f/4g/4a/c/ E/B/a/g/ | %446
 A/^c/g/e/ A/d/^f/d/ ^G/d/=f/d/ =G/c/e/c/ | ^F/A/e/A/ =F/d/a/d/ E/d/b/a/ ^g/^f/e/d/ | %448
 c/e/4c/4A/E/ B/d/a/^g/ A,4 | E/e/g/b/ g/e/_e/=e/ E/e/g/b/ g/e/_e/=e/ | %450
 E/G/4A/4B/B,/ E/G/B/_E/ =E/G/4A/4B/B,/ E/G/B/_E/ | %451
 E/^F/4G/4A/G/4F/4 G/A/4B/4c/B/4A/4 B/G/4A/4B/^c/4_e/4 =e/B/4A/4G/F/ | %452
 E/^F/4G/4A/G/4F/4 G/A/4B/4c/B/4A/4 B/G/4A/4B/^c/4 _e/4 =e/B/4A/4G/F/ | %453
 E/G/B/e/ g/b/g/e/ _e/^f/e/B/ ^F/A/G/F/ | E/G/B/e/ g/b/g/e/ _e/^f/e/B/ ^F/A/G/F/ | %455
 E/G/B/d/ c/G/^F/E/ D/F/A/c/ B/F/E/D/ | C/E/G/B/ A/G/^F/E/ _E/B/F/E/ B,/C/A,/B,/ | %457
 G,/E/4^F/4G/B/ e/^f/d/e/ c/e/4d/4c/B/ A/B/G/A/ | ^F/D/4E/4F/G/ d/e/c/d/ B/G/4A/4B/d/ g/a/^f/g/ | %459
 e/g/e/B/ c/E/G/c/ d/g/d/A/ B/D/G/B/ | c/g/c/A/ D/^f/4g/4a/c/ B/g/d/B/ G/A/F/G/ | %461
 E/c/g/_B/ A/F/A/E/ D/=B/f/A/ G/E/G/D/ | C/A/e/G/ F/D/F/C/ B,/G/d/F/ E/C/F/D/ | %463
 G/E/C/E/ G/E/A/F/ _B/G/E/G/ B/G/c/G/ | A/F/A/c/ f/d/a/c/ B/G/B/d/ g/e/b/d/ | %465
 c/A/c/e/ a/f/c'/e/ d/B/d/g/ b/g/d'/f/ | %466
 e/g/4f/4e/f/4g/4 a/B/4c/4d/e/4f/4 g/A/4B/4c/d/4e/4 f/G/4A/4B/c/4d/4 | %467
 e/C/4D/4E/F/4G/4 A/F/d/F/ G,/F/B/d/ c/B/A/G/ | %468
 F/E/4D/4E/c/ G,/D/c/B/ c/e/4c/4G/F/ E/G/4E/4C/_B,/ | %469
 A,/G/^c/G/ c/G/e/G/ F/d/4A/4F/E/ D/A/4F/4D/C/ | %470
 B,/A/_e/A/ e/A/^f/A/ ^G/=e/4B/4G/^F/ E/B/4G/4E/D/ | %471
 C/4e/4d/4c/4B/c/4d/4 c/B/4A/4^G/A/4B/4 ^C/4A/4=G/4F/4E/F/4G/4 F/E/4D/4C/D/4E/4 | %472
 D/f/4e/4d/c/ B/d/G/A/4B/4 C/e/4d/4c/B/ A/c/F/G/4A/4 | %473
 B,/d/4c/4B/A/ ^G/d/b/d/ c/A/4B/4c/f/ B/=G/4A/4B/e/ | %474
 A/F/4G/4A/^c/ d/B/4=c/4d/f/ ^g/e/4^f/4g/b/ d'/b/4g/4e/g/4b/4 | %475
 c'/e'/4c'/4a/g/ f/d'/e/c'/ d/c'/4a/4f/e/ d/b/c/a/ | %476
 B/f/4d/4B/A/ ^G/d/^F/d/ E/G/B/d/ f/e/4d/4c/B/ | c/^G/A/_E/ =E/c/B/A/4G/4 A/F/4G/4A/F/ E/D/C/B,/ | %478
 C/4E/4^F/4^G/4A/E/ D/C/B,/A,/ B,/4C/4D/4E/4=F/E/ D/B/f/A/ | %479
 ^G/4A/4B/4c/4d/c/ B/^g/4a/4b/d/ c/4e/4^f/4g/4a/c/ E/B/a/g/ | %480
 A/^c/g/e/ A/d/^f/d/ ^G/d/=f/d/ =G/c/e/c/ | ^F/A/e/A/ =F/d/a/d/ E/d/b/a/ ^g/^f/e/d/ | %482
 c/e/4c/4A/E/ B/d/a/^g/ !fermata!A,4 |] %483
V:2
 c2 z2 z4 | A z z2 z4 | z4 c z z2 | x8 | G z z2 z4 | z2 z c c z z2 | x8 | E z z2 c3/2 z/ z B/G/ | %8
 ^F z z2 z4 | z4 =e z z2 | z4 B z z2 | x8 | E z z2 ^c z z2 | A z z2 z4 | x8 | z2 E z z4 | %16
 B z z2 B-B/4d/4c/4B/4 z2 | A z A z z4 | x8 | A3/2 z/ z2 c3/2 z/ z2 | x8 | x8 | x8 | x8 | %24
[M:2/4] x4 | x4 | x4 | x4 | x4 | x4 | c2 z2 | B2 B2 | B2 =eB | ^c2 z c | A2 dA | B2 z2 | %36
 c/ z/ z z2 | x4 | x4 | x4 | E/ z/ z z2 | x4 | x4 | x4 | x4 | x4 | x4 | x4 | x4 | x4 | x4 | x4 | %52
 x4 | x4 | x4 | d z z2 | x4 | c z z2 | ^c z z2 | d/ z/ z z2 | _B z z2 | Bc/B/ cc | B z z d | %63
 ^c z d z | A z z A | A z z F | z d c z | x4 | x4 | x4 | E/ z/ z z2 | x4 | x4 | x4 | x4 | x4 | x4 | %77
 x4 | B/ z/ z z2 | x4 | x4 | x4 | x4 | x4 | x4 | x4 | B z z B | x4 | x4 | x4 | x4 | x4 | x4 | %93
 G z G z | ^F z Bc | B z A z | x4 | x4 | x4 | x4 | x4 | x4 | x4 | x4 | c z z2 | G z G z | c z B z | %107
 c z z2 | c z z2 | c z z2 | dg/^f/ gG | x4 | x4 | x4 | g z z d | e z f z | c z c z | x4 | c z z2 | %119
 x4 | A z z2 | x4 | c z z c | c z z2 | F/ z/ z z2 | x4 | E/ z/ z z2 | ^F z ^G z | A z A z | %129
 A z z2 | A z z2 | de/d/ z2 | c z z2 | d/e/f/e/ d/c/B/A/ | x4 | x4 | x4 | x4 | x4 | x4 | x4 | x4 | %142
 x4 | x4 | x4 | x4 | x4 | x4 | x4 | x4 | x4 | x4 | x4 | x4 | z2 z c | c z FD | E z z2 | x4 | %158
 z _e =e z | x4 | x4 | x4 | x4 | x4 | x4 | x4 | x4 | Ac Bd | c/ z/ z AE | ^F z z F | DG/^F/ GD | %171
 E z z2 | x4 | x4 | cc/d/ cB | Ad/e/ dc | B z B z | c z ^c z | Bd/e/ dc | Be/f/ ed | cd eE | x4 | %182
 Bc dE | x4 | AB cD | x4 | z2 G z | c z z2 | AB z2 | B z z G | G z z2 | x4 | ^F z z2 | x4 | x4 | %195
 B z z2 | B z z2 | ^F z z _e | B z z2 | A^F z2 | x4 | x4 | x4 | x4 | x4 | x4 | x4 | x4 | x4 | x4 | %210
 x4 | x4 | z3 B | ^cA z2 | x4 | BG z2 | x4 | E/F/E/C/ z2 | x4 | x4 | x4 | z2 F z | F z F z | %223
 c z z c | c z z c | c_B/A/ Bc | c z z2 | x4 | x4 | x4 | x4 | x4 | x4 | x4 | x4 | x4 | x4 | x4 | %238
 x4 | x4 | x4 | x4 | x4 | x4 | E z z2 | x4 | A z z A | _B z z2 | F z z2 | x4 | x4 | x4 | x4 | %253
 E z z _B | F z z2 | x4 | x4 | x4 | x4 | x4 | x4 | x4 | x4 | x4 | x4 | x4 | x4 | x4 | x4 | x4 | %270
 x4 | x4 | x4 | x4 | z2 E z | x4 | x4 | x4 | x4 | x4 | ^c z c z | A z A z | _A z z2 | x4 | x4 | %285
 x4 | x4 | x4 | x4 | x4 | x4 | x4 | x4 | x4 | x4 | z2 z d | c z ^c z | d z ^c z | x4 | x4 | x4 | %301
 z d c z | x4 | x4 | c z B z | A z z2 | A z ^G z | AF z2 | d z ^c z | x4 | x4 | z c Bd | %312
 !fermata!^c4 | x4 |[M:3/4] x6 | x6 | z2 G/G/A/E/ z2 | D z z4 | x6 | z2 d/d/e/B/ z2 | z4 BB | %321
 c z z4 | z4 G2 | x6 | x6 | x6 | x6 | z2 G/G/A/E/ z2 | D z z4 | x6 | z2 d/d/e/B/ z2 | z4 BB | %332
 c z z4 | z4 G2 | x6 | x6 | x6 | z4 B z | x6 | x6 | x6 | x6 | B z e z z2 | x6 | x6 | z4 AB | x6 | %347
 x6 | z4 c/ z/ z | c/ z/ z z4 | EE EE ^FF | x6 | z4 B z | x6 | x6 | x6 | x6 | B z e z z2 | x6 | %359
 x6 | z4 AB | x6 | x6 | z4 c/ z/ z | c/ z/ z z4 | E6 |[M:2/2] x8 | x8 | x8 | x8 | x8 | x8 | x8 | %373
 x8 | x8 | x8 | x8 | x8 | x8 | x8 | x8 | x8 | x8 | x8 | x8 | x8 | x8 | x8 | x8 | x8 | x8 | x8 | %392
 x8 | x8 | x8 | x8 | x8 | x8 | x8 | x8 | x8 | x8 | x8 | x8 | x8 | x8 | x8 | x8 | x8 | x8 | x8 | %411
 x8 | x8 | x8 | x8 | x8 | x8 | x8 | x8 | x8 | x8 | x8 | x8 | x8 | x8 | x8 | x8 | x8 | x8 | x8 | %430
 x8 | x8 | x8 | x8 | x8 | x8 | x8 | x8 | x8 | x8 | x8 | x8 | x8 | x8 | x8 | x8 | x8 | x8 | x8 | %449
 x8 | x8 | x8 | x8 | x8 | x8 | x8 | x8 | x8 | x8 | x8 | x8 | x8 | x8 | x8 | x8 | x8 | x8 | x8 | %468
 x8 | x8 | x8 | x8 | x8 | x8 | x8 | x8 | x8 | x8 | x8 | x8 | x8 | x8 | x8 |] %483
V:3
 A2 z2 F z E z | D z _E z z2 ^G, z | z4 E z z2 | F z z2 F z E2 | B, z z2 C z z2 | A z z A GF G2 | %6
 C z z2 B,/ z/ z z2 | A, z z2 D3/2 z/ z E | B, z z2 z4 | G z z ^F GAB z | %10
 _B-B/4=B/4^c/4_e/4 =e/4c/4_B/4G/4^F/4E/4F/4_B,/4 G z ^F z | E2 z2 D z z2 | C z z2 E z z A | %13
 D z z2 z4 | z2 z2 A z z2 | z2 A, z D z z2 | D z z2 C z z2 | B, z A, z E z z2 | z4 C z z B, | %19
 CDE z _E3/2 z/ z2 | ED/d/ E2 z4 | z4 z/4 F/4 z/4 F/4 z/4 F/4 z/4 F/4 ^F2 | E8 | z8 |[M:2/4] z4 | %25
 z4 | z A/^G/ AA, | EG ^FA | ^G2 =G2 | ^F2 =F2 | E2 z ^F | G2 _E2 | E2 z E | A2 z A | D2 z D | %35
 G z z G | G/ z/ z z2 | C z z C | B, z z A, | ^G, z z2 | A,/ z/ z F2 | EB/A/ B^c | dA/G/ AB | %43
 cc/B/ cd | eB/A/ B^c | dd/^c/ de | ^f^c/B/ c_e | e2 e2 | _e2 d2 | c2 f2 | e2 _e2 | d2 g2 | %52
 ^f2 =f2 | ea/^g/ aA | z4 | Gg/^f/ gG | z4 | F z z2 | E z z2 | D/ z/ z z2 | D z z2 | D z z _E | %62
 Ee/_e/ =eE | E z A z | GG/F/ GE | F z z F | z ^G A z | ED C2 | A,/ z/ z ^G/ z/ A/ z/ | z D CB, | %70
 A,/ z/ z ^G/ z/ A/ z/ | z D CB, | A,/ z/ z z ^G/A/ | B,/ z/ z z2 | C/ z/ z ^G/ z/ A/ z/ | z4 | %76
 z2 _e/ z/ =e/ z/ | z A G^F | E/ z/ z _e/ z/ =e/ z/ | z A G^F | E/ z/ z z2 | ^F/ z/ z z2 | %82
 G/ z/ z _e/ z/ =e/ z/ | AG ^FE | _E z z A | G z B z | Ee/_e/ =eE | Ac Bd | c z z A | %89
 AB/A/ B/G/A/^F/ | G z z ^G | A/E/G/E/ ^F/E/_E/=E/ | _E z z E | E z A, z | A, z EE | E z _E z | %96
 EG/^F/ GA | B^F/E/ F^G | A2 A2 | ^G2 =G2 | ^F=F/E/ FG | AE/D/ E^F | G2 G2 | ^F2 =F2 | E z z C | %105
 A, z B, z | G z D z | E z z2 | Ff/e/ z2 | ^F z z2 | G z z2 | ce df | e z z2 | z g g^f | %114
 z G/^F/ z G | G z DF | EG FA | G z z2 | E z z2 | F z z2 | D z z2 | B, z z2 | G z z G | F z z2 | %124
 G,/ z/ z z2 | z4 | C z z C | C z B, z | A, z B, z | E z z2 | D z z2 | E z z2 | EA/G/ A/F/G/E/ | %133
 F z z2 | z4 | z4 | z4 | z4 | z4 | z4 | z4 | z4 | z4 | z4 | z4 | z4 | z4 | z4 | eE/F/ Ee | AF GE | %150
 FD/E/ Dd | GE FD | E z z e- | ed- d{e}c | FG AF | G z G, z | C z z2 | _E z z A | G^F GA | BA B2 | %160
 E z z2 | z e e_e | eE/^F/ Ee | BG A^F | G z z2 | ^G z E z | A z z D | E z E z | EA/^G/ z A, | %169
 D z z D | G, z z G, | C z z C | F z A z | _B z =B z | z2 E z | A z ^F z | G z E z | A z E z | %178
 D z D z | E z E z | F z z2 | De dc | E z z2 | A,d cB | D z z2 | G,B/A/ BF | E z B, z | GA _B^C | %188
 D z c2 | D z z G | A, z z2 | A, z z2 | B, z z2 | z4 | z4 | E z z D | E z z2 | ^F z z F | E z E z | %199
 A, z GE | ^F3 E | _E z z2 | z4 | z4 | z4 | z4 | z4 | z4 | z4 | z4 | z4 | z G AB | E z z E | %213
 E z _BG | F/E/D/E/ F/A/d/f/ | D z ^GF | E/D/C/D/ E/^F/^G/A/ | ^G, z D/E/D/B,/ | z4 | z4 | %220
 E z z C | F z D z | A, z _B, z | G_B,/A,/ B,G | AC/B,/ CA | E z z E | Fe dc | _B z =B z | c z z2 | %229
 z4 | z4 | z4 | z4 | z4 | z4 | z4 | z4 | z4 | z4 | z4 | z4 | z4 | z4 | z4 | G, z z G | F z A z | %246
 Dd/^c/ dD | G_B Ac | _B, z z2 | _B z A z | G z z2 | F z z2 | E z z D | ^C z AG | A, z A, z | %255
 D z D2 | ^C2 =C2 | B,B,/A,/ B,^C | DA,/G,/ A,B, | C2 C2 | B,2 _B,2 | A,A,/G,/ A,B, | %262
 CG,/A,/ G,A, | _B,2 D2 | _E2 =E2 | FF/G/ F_E | DG/A/ GF | E2 E2 | F2 ^F2 | G2 G2 | EA/_B/ AG | %271
 F z z2 | ^F z D z | G z z2 | E z C z | FA/G/ F_E | D_B CA | _B,_B/A/ GF | Ec DB | Cc/d/ ed | %280
 E z A z | D z A z | B, z z2 | z4 | z4 | E z z2 | E z z2 | E z z D | ^C/ z/ z d=C | B,d cB, | %290
 A,/ z/ z z A, | ^G, z AA, | D z z F | F_B Bd | df/e/ cB/A/ | BE/F/ EE | AF GE | FD EA, | AG GF | %299
 FA/G/ FE | D z z D | z ^G A z | ED E2 | AA,/B,/ A,A | EC DB, | E z z2 | E z B, z | A, z GE | %308
 F z E z | f/4g/4a/4g/4f/4e/4d/4^c/4 d/4e/4f/4e/4d/4=c/4B/4A/4 | %310
 B/4c/4d/4c/4B/4A/4^G/4^F/4 G/4A/4B/4A/4G/4F/4E/4D/4 | z E EE | !fermata!E4 | z4 | %314
[M:3/4] CC CC CC | B,B, B,B, B,B, | CC A,A, DD | G,G, GG GG | GG FF FF | FF EE AA | %320
 c/c/d/A/ GG DD | G z CE E z | C z z2 B,2 | z2 D4 | G,G, A,A, B,B, | CC CC CC | B,B, B,B, B,B, | %327
 CC A,A, DD | G,G, GG GG | GG FF FF | FF EE AA | c/c/d/A/ GG DD | G z CE E z | C z z2 B,2 | z2 D4 | %335
 G,6 | GG GG GG | ^GG GG GG | AA FF FF | BB dd dd | cc cc cA | _ee ee BB | E^F GA BB | ee dd dd | %344
 ^cc AA AA | dd DD EE | EE ^FF FF | GG GG G,G, | _A,/ z/ z z2 D/ z/ z | E/ z/ z D2 z2 | %350
 CC B,B, A,A, | GG GG GG | _AA AA AA | AA FF FF | BB dd dd | cc cc cA | _ee ee BB | E^F GA BB | %358
 ee dd dd | ^cc AA AA | dd DD EE | EE ^FF FF | GG GG G,G, | ^G,/ z/ z z2 D/ z/ z | E/ z/ z D2 z2 | %365
 C6 |[M:2/2] z8 | z8 | z8 | z8 | z8 | z8 | z8 | z8 | z8 | z8 | z8 | z8 | z8 | z8 | z8 | z8 | z8 | %383
 z8 | z2 z4 B,2 | z8 | z8 | z8 | z8 | z8 | z8 | z8 | z8 | z8 | z8 | z8 | z8 | z8 | z8 | z8 | z8 | %401
 z8 | z8 | z8 | z8 | z8 | z8 | z8 | z2 z4 B,2 | z8 | z8 | z8 | z8 | z8 | z8 | z8 | z8 | z8 | z8 | %419
 z8 | z8 | z8 | z8 | z8 | z8 | z8 | z8 | z8 | z8 | z8 | z8 | z8 | z8 | z8 | z8 | z8 | z8 | z8 | %438
 z8 | z8 | z8 | z8 | z8 | z8 | z8 | z8 | z8 | z8 | z8 | z8 | z8 | z8 | z8 | z8 | z8 | z8 | z8 | %457
 z8 | z8 | z8 | z8 | z8 | z8 | z8 | z8 | z8 | z8 | z8 | z8 | z8 | z8 | z8 | z8 | z8 | z8 | z8 | %476
 z8 | z8 | z8 | z8 | z8 | z8 | z8 |] %483
V:4
 A,2 z2 z4 | x8 | x8 | x8 | x8 | x8 | x8 | x8 | x8 | x8 | z4 =B, z z2 | x8 | z4 A, z z2 | x8 | x8 | %15
 x8 | G, z z2 z4 | x8 | x8 | x8 | x8 | x8 | x8 | x8 |[M:2/4] x4 | x4 | x4 | x4 | x4 | x4 | x4 | %31
 x4 | x4 | x4 | x4 | x4 | C/ z/ z z2 | x4 | x4 | x4 | x4 | x4 | x4 | x4 | x4 | x4 | x4 | x4 | x4 | %49
 x4 | x4 | x4 | x4 | x4 | x4 | x4 | x4 | x4 | x4 | x4 | x4 | x4 | x4 | A,/ z/ ^C/ z/ B,D | %64
 ^C z z C | D z z D | DB, CD | x4 | x4 | x4 | x4 | x4 | x4 | x4 | x4 | x4 | x4 | x4 | x4 | x4 | %80
 x4 | x4 | x4 | x4 | x4 | x4 | x4 | x4 | x4 | x4 | x4 | x4 | x4 | x4 | z2 G,A, | B, z z2 | x4 | %97
 x4 | x4 | x4 | x4 | x4 | x4 | x4 | x4 | x4 | C z z2 | x4 | x4 | x4 | x4 | x4 | x4 | x4 | z2 GG, | %115
 CE z2 | x4 | x4 | x4 | x4 | x4 | x4 | C_B,/A,/ B,G, | A, z z2 | x4 | x4 | x4 | x4 | x4 | C z z2 | %130
 CD/C/ D/B,/C/A,/ | B, z z2 | A, z z2 | A, z z2 | x4 | x4 | x4 | x4 | x4 | x4 | x4 | x4 | x4 | x4 | %144
 x4 | x4 | x4 | x4 | x4 | x4 | x4 | x4 | x4 | x4 | x4 | x4 | x4 | x4 | x4 | x4 | x4 | x4 | x4 | %163
 x4 | x4 | x4 | x4 | C z z2 | A,/ z/ z z2 | x4 | x4 | x4 | x4 | x4 | x4 | x4 | x4 | z2 A, z | %178
 z2 B, z | x4 | x4 | x4 | x4 | x4 | x4 | x4 | x4 | C z z2 | x4 | G, z z G, | x4 | x4 | x4 | x4 | %194
 x4 | x4 | C z z2 | B, z z A, | G, z _A, z | x4 | x4 | x4 | x4 | x4 | x4 | x4 | x4 | x4 | x4 | x4 | %210
 x4 | x4 | x4 | A, z z2 | x4 | G, z z2 | x4 | x4 | x4 | x4 | x4 | x4 | x4 | x4 | x4 | x4 | x4 | %227
 x4 | x4 | x4 | x4 | x4 | x4 | x4 | x4 | x4 | x4 | x4 | x4 | x4 | x4 | x4 | x4 | x4 | x4 | x4 | %246
 x4 | x4 | x4 | x4 | x4 | x4 | x4 | z2 DG, | x4 | x4 | x4 | x4 | x4 | x4 | x4 | x4 | x4 | x4 | x4 | %265
 x4 | x4 | x4 | x4 | x4 | x4 | x4 | x4 | x4 | x4 | x4 | x4 | x4 | x4 | x4 | A, z z2 | z2 C z | x4 | %283
 x4 | x4 | x4 | x4 | x4 | x4 | x4 | x4 | x4 | x4 | x4 | E z z2 | x4 | x4 | x4 | D z z2 | x4 | x4 | %301
 DB, CD | x4 | x4 | x4 | C z z2 | C z z2 | x4 | A, z z2 | x4 | x4 | CA, z2 | A,4 | x4 |[M:3/4] x6 | %315
 x6 | x6 | x6 | x6 | x6 | DD z2 G,G, | CC z C CC | x6 | x6 | x6 | x6 | x6 | x6 | x6 | x6 | x6 | %331
 DD z2 G,G, | CC z C CC | x6 | x6 | x6 | x6 | x6 | x6 | EE z4 | x6 | ^FF z4 | x6 | x6 | x6 | x6 | %346
 x6 | x6 | z4 =A,/ z/ z | G,/ z/ z G,2 z2 | x6 | G,G, z4 | x6 | x6 | EE z4 | x6 | ^FF z4 | x6 | %358
 x6 | x6 | x6 | x6 | x6 | z4 A,/ z/ z | G,/ z/ z G,2 z2 | x6 |[M:2/2] x8 | x8 | x8 | x8 | x8 | x8 | %372
 x8 | x8 | x8 | x8 | x8 | x8 | x8 | x8 | x8 | x8 | x8 | x8 | x8 | x8 | x8 | x8 | x8 | x8 | x8 | %391
 x8 | x8 | x8 | x8 | x8 | x8 | x8 | x8 | x8 | x8 | x8 | x8 | x8 | x8 | x8 | x8 | x8 | x8 | x8 | %410
 x8 | x8 | x8 | x8 | x8 | x8 | x8 | x8 | x8 | x8 | x8 | x8 | x8 | x8 | x8 | x8 | x8 | x8 | x8 | %429
 x8 | x8 | x8 | x8 | x8 | x8 | x8 | x8 | x8 | x8 | x8 | x8 | x8 | x8 | x8 | x8 | x8 | x8 | x8 | %448
 x8 | x8 | x8 | x8 | x8 | x8 | x8 | x8 | x8 | x8 | x8 | x8 | x8 | x8 | x8 | x8 | x8 | x8 | x8 | %467
 x8 | x8 | x8 | x8 | x8 | x8 | x8 | x8 | x8 | x8 | x8 | x8 | x8 | x8 | x8 | x8 |] %483

